X:1
T:Title
%%score { ( 1 3 6 ) | ( 2 4 5 ) }
L:1/8
Q:1/4=100
M:4/4
K:Bb
V:1 treble nm="Grand Piano"
V:3 treble 
V:6 treble 
V:2 bass 
V:4 bass 
V:5 bass 
V:1
 .[DB]2 .[DB]2 [DB]2 F,.F | E2 E2 z2 d2 | z4 [EG]4 | eG .[EGd]2 [DFB]2 [EA]2 | %4
w: J.~Lincoln~Hall * * * *||||
 .[DB]2 .[DB]2 [DB]2 F,.F | B>A G>A [DB]2 [Dd]2 | c3 d .[Gf]2 G-[Gc] | [DFB]2 [CEA]2 [B,DB]4 | %8
w: ||||
 e3 c AFGA | B4 d2 F>F | G3 A cBAG | d6 z2 | e3 c AFGA | dcBA G2 GG | [B,GB]3 [B,GB] [Gc]2 [Gc]2 | %15
w: |||||||
[M:5/4] [^Fd]4 [F,E=F]6 |[M:4/4] .[DB]2 .[DB]2 [DB]2 F,.F | B2 G2 z2 d2 | z4 [EG]4 | %19
w: ||||
 eG .[EGd]2 [DFB]2 [EA]2 | .[DB]2 .[DB]2 [DB]2 F,.F | B>A G>A [DB]2 [Dd]2 | c3 d .[Gf]2 G-[Gc] | %23
w: ||||
[M:8/4] B2 A2 [DB]4 z8 |] %24
w: |
V:2
 .[B,,F,]2 .[F,,F,]2 .[B,,F,]2 F,,.D | z4 z2 D2 | E,2 D,2 C,2 z E | %3
 [E,G,E]2 z[K:treble] c[K:bass] z2 C2 | .[B,,F,]2 .[F,,F,]2 .[B,,F,]2 F,,.D | %5
 [C,F,]2 [F,,F,]2 [B,,F,]2 [F,,F,]2 | [E,B,]2 [D,=B,]2 z[K:treble] e[K:bass] z E | F,2 F,2 B,,4 | %8
 F,,F,A,C ECA,F, | B,,F,B,[K:treble]D F2 D2 | E,G,B,C EDCB, | [D,A,][D,A,][D,B,][D,B,] [D,A,]2 z2 | %12
 F,,F,A,C EF,G,A, | DCB,A, G,2 G,G, | E,3 E, [E,G,]2 [E,G,]2 |[M:5/4] A,2- A,2- A,6 | %16
[M:4/4] .[B,,F,]2 .[F,,F,]2 .[B,,F,]2 F,,.D | z4 z2 D2 | E,2 D,2 C,2 z E | %19
 [E,G,E]2 z[K:treble] c[K:bass] z2 C2 | .[B,,F,]2 .[F,,F,]2 .[B,,F,]2 F,,.D | %21
 [C,F,]2 [F,,F,]2 [B,,F,]2 [F,,F,]2 | [E,B,]2 [D,=B,]2 z[K:treble] e[K:bass] z E | %23
[M:8/4] [F,DF]2 [F,CE]2 [B,,B,]4 z8 |] %24
V:3
 x8 | B>A G>A [DB]2 z F, | [B,EG]2 [=B,FG]2 C2 z c | x8 | x8 | E2 z2 z4 | G2 G2 z2 .[Cd]2 | x8 | %8
 x8 | x8 | x8 | ^FFGG F2 z2 | x8 | x8 | x8 |[M:5/4] x10 |[M:4/4] x8 | E->[EA] E->[EA] [DB]2 z F, | %18
 [B,EG]2 [=B,FG]2 C2 z c | x8 | x8 | E2 z2 z4 | G2 G2 z2 .[Cd]2 |[M:8/4] x16 |] %24
V:4
 x8 | z4 [B,,F,]4 | z4 z2 C,2 | z2 E,2[K:treble][K:bass] F,4 | x8 | x8 | %6
 z4 [C,C]2[K:treble][K:bass] E,2 | x8 | x8 | x3[K:treble] x5 | x8 | x8 | x8 | x8 | x8 | %15
[M:5/4] D,4 z2 z4 |[M:4/4] x8 | z4 [B,,F,]4 | z4 z2 C,2 | z2 E,2[K:treble][K:bass] F,4 | x8 | x8 | %22
 z4 [C,C]2[K:treble][K:bass] E,2 |[M:8/4] x16 |] %24
V:5
 x8 | [C,F,]2 [F,,F,]2 z2 z F,, | x8 | x3[K:treble] x[K:bass] x4 | x8 | x8 | %6
 x5[K:treble] x[K:bass] x2 | x8 | x8 | x3[K:treble] x5 | x8 | x8 | x8 | x8 | x8 |[M:5/4] x10 | %16
[M:4/4] x8 | [C,F,]2 [F,,F,]2 z2 z F,, | x8 | x3[K:treble] x[K:bass] x4 | x8 | x8 | %22
 x5[K:treble] x[K:bass] x2 |[M:8/4] x16 |] %24
V:6
 x8 | x8 | z4 z2 G,2 | x8 | x8 | x8 | x8 | x8 | x8 | x8 | x8 | x8 | x8 | x8 | x8 |[M:5/4] x10 | %16
[M:4/4] x8 | x8 | z4 z2 G,2 | x8 | x8 | x8 | x8 |[M:8/4] x16 |] %24

